X: 5454
T: Bunch Of Keys, The
R: reel
M: 4/4
K: Gdorian
DGGF ~G2 Ac|BG (3GGG dGBG|DFFE EF2 B|A~F3 dFcF|
DGGF ~G2 Ac|BGGA Bcde|(3fga fe fdec|(3Bcd cA BGG2:|
dgg^f ~g3 a|bg~g2 ag^fe|d^cde fefg|af~f2 gfeg|
dgg^f ~g3 a|bg~g2 ag^fg|(3fga fe fdec|(3Bcd cA BGG2:|
BG(3GGG BGdG|BG(3GGG Bdgd|AF(3FFF AFcF|AF(3FFF ABcA|
DGGF ~G2 Ac|BGGA Bcde|(3fga fe fdec|(3Bcd cA BGG2:|

